X: 271
T: Fengjian jiading
%%abc-version 2.0
%%abcx-abcm2ps-target-version 5.9.1 (29 Sep 2008)
%%abc-creator hum2abc beta
%%abcx-conversion-date 2013/10/02 07:52:29
%%abc-edited-by Helmut Schaffrath
%%humdrum-veritas 1725941693
%%humdrum-veritas-data 2576247559
%%continueall 1
%%barnumbers 0
L: 1/16
M: 2/4
K: F
c2 c c B2 A c [I:setbarnb 1]| 
f2 e dc4 | 
f2 e d c2 c d | 
F2 E DG4 | 
G2 G A f2 d c | 
c E G A2< C2 D | 
F2 F A G F E D | 
C8 |]  



